svg/donors.svg

<?xml version="1.0" encoding="UTF-8" standalone="no"?>
<svg
   xmlns:dc="http://purl.org/dc/elements/1.1/"
   xmlns:cc="http://creativecommons.org/ns#"
   xmlns:rdf="http://www.w3.org/1999/02/22-rdf-syntax-ns#"
   xmlns:svg="http://www.w3.org/2000/svg"
   xmlns="http://www.w3.org/2000/svg"
   height="176"
   width="176"
   version="1.1"
   id="svg2"
   viewBox="0 0 176 176">
  <metadata
     id="metadata16699">
    <rdf:RDF>
      <cc:Work
         rdf:about="">
        <dc:format>image/svg+xml</dc:format>
        <dc:type
           rdf:resource="http://purl.org/dc/dcmitype/StillImage" />
        <dc:title></dc:title>
      </cc:Work>
    </rdf:RDF>
  </metadata>
  <defs
     id="defs16697" />
  <g
     transform="translate(1.2943291e-4,-23.999607)"
     id="g7454">
    <path
       id="path6611"
       d="m 123.57422,115.80273 c -1.23669,-0.0238 -2.52111,2.1e-4 -3.82813,0.0918 -0.45212,0.0284 -0.91877,0.0621 -1.38671,0.10547 l 0.1289,-0.006 c -0.22173,0 -0.33439,0.0246 -0.37109,0.0312 -0.002,2.2e-4 -0.004,0.002 -0.006,0.002 -2.8701,0.30705 -5.6797,0.87574 -8.41211,1.69922 -0.002,5.8e-4 -0.004,9.6e-4 -0.006,0.002 -1.22407,0.35341 -2.41587,0.76565 -3.57422,1.20898 l -0.0117,0.006 -0.0117,0.004 c -0.20261,0.082 -0.41349,0.17056 -0.59961,0.24414 l -0.0117,0.004 -0.008,0.004 c -0.43247,0.17854 -0.87191,0.36295 -1.30859,0.55078 h -0.0156 l -0.18945,0.0879 c -0.0116,0.005 -0.0236,0.009 -0.0352,0.0137 l -0.15234,0.0664 -0.01,0.008 c -0.0683,0.03 -0.13171,0.0562 -0.22656,0.0996 l -0.22851,0.10547 -0.0293,0.0293 c -0.78445,0.3607 -1.5519,0.73898 -2.31055,1.1289 l -0.01,0.004 -0.0117,0.006 c -1.240132,0.663 -2.46969,1.3758 -3.666017,2.14453 l -0.07422,0.0469 -0.06641,0.0547 c 0.0045,-0.004 -0.05697,0.0423 -0.11914,0.0859 -1.086287,0.70715 -2.119942,1.47803 -3.138672,2.26953 h -0.09375 l -0.38086,0.30273 C 78.921792,137.67025 75.54401,154.51934 75.4375,155.06641 l -0.15625,0.58789 -0.0059,0.0293 c -0.175829,0.79124 -0.241855,1.06822 -0.384766,1.88282 -0.24454,1.38408 -0.321207,1.72971 -0.449219,3.17578 l 0.0293,-0.1875 c -0.09902,0.43546 -0.0752,0.52237 -0.03125,0.89648 0.04395,0.37412 0.121545,0.95692 0.761719,1.45703 l 0.002,0.002 h 0.002 c 0.638321,0.49596 1.691336,1.19427 3.042969,1.07617 h 0.002 0.0039 c 0.811193,-0.0739 1.724411,-0.82404 1.841797,-1.78516 l 0.01367,0.002 c 0.776458,-6.25681 2.928417,-12.42522 6.548828,-18.09765 13.018734,-20.41153 40.110582,-26.39664 60.527342,-13.35938 7.87093,5.02505 11.82778,12.10882 15.18945,20.38868 l -0.0703,-0.23243 c 0.0641,0.29879 0.1248,0.37934 0.13672,0.38868 1.14262,2.62174 1.48269,5.51586 2.07031,8.69921 0.0774,0.58627 0.39045,1.13825 0.82617,1.51172 l 0.0527,0.0449 0.0566,0.0391 c 0.1799,0.12585 0.37732,0.24426 0.65234,0.33594 l 0.16992,0.0566 6.73438,0.4375 c 0.87475,0.19747 1.78499,-0.13255 2.35156,-0.81641 0.16874,-0.20156 0.10851,-0.49151 0.20117,-0.73242 L 176,160.42773 l -0.11328,-0.70507 c -3.13016,-19.65277 -19.59154,-35.55952 -37.33789,-41.4961 l -0.0117,-0.004 c -0.15282,-0.054 -0.31817,-0.11288 -0.52734,-0.16993 l -0.0508,-0.0156 -0.0527,-0.01 c 0.10492,0.0203 0.0764,0.007 -0.11719,-0.0312 -0.10611,-0.0375 -0.18121,-0.0747 -0.36523,-0.10547 l 0.17969,0.043 c -0.4723,-0.14458 -1.0021,-0.29583 -1.5879,-0.4414 l -0.0137,-0.004 c -2.95793,-0.7651 -7.30913,-1.6129 -12.41992,-1.68555 z" />
    <path
       d="m 113.39258,60.910156 c -1.28566,-0.005 -2.58416,0.102033 -3.88672,0.332032 C 95.615834,63.69571 86.929011,78.9196 89.775391,94.994141 c 2.83676,16.070149 16.215719,27.390959 30.105469,24.937499 13.89406,-2.45834 22.58377,-17.68201 19.74219,-33.751952 -2.48637,-14.06114 -13.04133,-24.48557 -24.94922,-25.228516 -0.42528,-0.02653 -0.8527,-0.03936 -1.28125,-0.04102 z m -1.28516,10.806641 c 0.29404,0.0018 0.58839,0.01215 0.88086,0.03125 8.1892,0.53479 15.70262,7.789963 17.50586,17.990234 2.06068,11.656549 -4.20485,22.259419 -13.66602,23.935549 0,0 -0.002,0 -0.002,0 C 107.37003,115.343 97.845222,107.52906 95.789062,95.873047 93.728252,84.215728 99.994407,73.612 109.45117,71.941406 c 0.88709,-0.15664 1.77414,-0.22992 2.65625,-0.224609 z"
       id="path7436" />
    <path
       d="m 40.355469,124.16406 c -1.010396,-0.019 -2.058444,6.1e-4 -3.136719,0.0781 -0.378897,0.0198 -0.765727,0.0489 -1.150391,0.0879 l 0.140625,-0.006 c -0.124804,0 -0.248038,0.0116 -0.36914,0.0293 -2.348125,0.25671 -4.645331,0.71976 -6.876953,1.39257 0,0 -0.002,0 -0.002,0 -0.0019,5.9e-4 -0.0039,9.6e-4 -0.0059,0.002 -0.998405,0.29444 -1.977264,0.6278 -2.93164,0.99414 l -0.01563,0.006 -0.01562,0.006 c -0.144812,0.0596 -0.321865,0.13023 -0.494141,0.20117 -0.335482,0.13792 -0.675643,0.28252 -1.015625,0.42969 h -0.03711 l -0.285156,0.13476 c -0.06813,0.0322 -0.155996,0.073 -0.253906,0.11914 -0.0058,0.003 -0.0097,0.003 -0.01563,0.006 l -0.0332,0.0156 -0.04102,0.0215 c -0.691922,0.31396 -1.357367,0.64984 -2.019531,0.99219 l -0.0059,0.002 -0.0059,0.004 c -1.024562,0.54127 -2.037067,1.13447 -3.011718,1.76172 l -0.06055,0.0391 -0.05664,0.0449 c 0.0083,-0.007 -0.05223,0.0347 -0.09766,0.0664 -0.0035,0.002 -0.0063,0.006 -0.0098,0.008 -0.0215,0.0151 -0.0091,0.005 -0.04102,0.0273 -0.852229,0.55554 -1.658556,1.16156 -2.457031,1.77735 h -0.07813 l -0.380859,0.30078 c -11.8741403,9.39776 -14.65191413,23.18116 -14.74977712,23.683 l -0.12695313,0.48633 -0.005859,0.0273 c -0.14258933,0.64395 -0.19841657,0.87129 -0.31835938,1.54297 l -0.001953,0.002 v 0.002 c -0.19795318,1.12788 -0.26422246,1.42495 -0.36914063,2.61719 l 0.03125,-0.19727 c -0.055097,0.2341 -0.0440882,0.26964 -0.04882812,0.39258 -0.00473995,0.12294 -0.002389538,0.26316 0.01757812,0.43164 0.03993532,0.33696 0.10435301,0.87761 0.71289063,1.35742 l 0.003906,0.002 0.003906,0.004 c 0.51657673,0.4023 1.48242983,1.02861 2.65234373,0.92969 0.7864227,-0.0625 1.6307515,-0.78352 1.7421875,-1.68164 l 0.023437,0.002 C 5.785562,157.2432 7.5263128,152.24493 10.460937,147.65454 v -0.002 c 10.544331,-16.53889 32.481925,-21.38496 49.021484,-10.82226 6.361481,4.06514 9.553638,9.77782 12.291016,16.51562 l -0.06055,-0.1914 c 0.05851,0.23657 0.09714,0.28195 0.08203,0.24414 l 0.0078,0.0234 0.0098,0.0215 c 0.93359,2.11724 1.206912,4.48683 1.699219,7.13476 l -0.01367,-0.0918 c 0.06821,0.57275 0.369692,1.07302 0.767578,1.41406 l 0.03906,0.0352 0.04297,0.0312 c 0.17442,0.128 0.361877,0.23728 0.623047,0.32422 l 0.171875,0.0566 5.507813,0.35937 c 0.805641,0.17158 1.635729,-0.12752 2.15625,-0.75976 l 0.002,-0.004 0.002,-0.002 c 0.103355,-0.1267 0.05312,-0.32597 0.126953,-0.47461 l 0.507812,-0.27344 -0.15625,-0.98047 C 80.712024,144.05269 67.205668,131.02146 52.634766,126.14844 v -0.002 c -0.125469,-0.0418 -0.255325,-0.0855 -0.408204,-0.13086 l -0.01367,-0.002 -0.01172,-0.004 c -0.10209,-0.0282 -0.140633,-0.0352 -0.132813,-0.0332 l 0.167969,0.0547 c -0.08388,-0.0326 -0.260397,-0.10702 -0.507812,-0.1543 l 0.142578,0.0352 c -0.386897,-0.11754 -0.821189,-0.24007 -1.300782,-0.36133 -2.424518,-0.62537 -6.002124,-1.32798 -10.207031,-1.38672 z"
       id="path7438" />
    <path
       d="m 32.054688,79.384766 c -1.062907,-0.0036 -2.13723,0.08709 -3.214844,0.277343 -11.495083,2.029434 -18.650763,14.606662 -16.3125,27.833981 2.33421,13.227 13.371555,22.57997 24.865234,20.55079 C 48.886822,126.01254 56.041377,113.4421 53.703125,100.21484 51.657092,88.644912 42.957176,80.032466 33.113281,79.419922 32.761714,79.398044 32.40899,79.38598 32.054688,79.384766 Z m -1.75586,9.351562 C 37.3717,88.356823 44.193598,94.39698 45.75,103.20703 c 1.66015,9.39296 -3.379606,17.88503 -10.941406,19.22461 -7.550613,1.33493 -15.205761,-4.91685 -16.861328,-14.30859 -1.660064,-9.392478 3.38481,-17.889677 10.935546,-19.224612 0.472274,-0.08345 0.944491,-0.13681 1.416016,-0.16211 z"
       id="path7440" />
  </g>
</svg>

<?xml version="1.0" encoding="UTF-8" standalone="no"?>
<svg
   xmlns:dc="http://purl.org/dc/elements/1.1/"
   xmlns:cc="http://creativecommons.org/ns#"
   xmlns:rdf="http://www.w3.org/1999/02/22-rdf-syntax-ns#"
   xmlns:svg="http://www.w3.org/2000/svg"
   xmlns="http://www.w3.org/2000/svg"
   viewBox="0 0 176 176">
  <path
     id="path6611"
     d="M 123.57422 115.80273 C 122.33753 115.77893 121.05311 115.80294 119.74609 115.89453 C 119.29397 115.92293 118.82732 115.95663 118.35938 116 L 118.48828 115.99414 C 118.26655 115.99414 118.15389 116.01879 118.11719 116.02539 C 118.11519 116.02561 118.11333 116.02734 118.11133 116.02734 C 115.24123 116.33439 112.43163 116.90308 109.69922 117.72656 C 109.69722 117.72714 109.69536 117.72752 109.69336 117.72852 C 108.46929 118.08193 107.27749 118.49417 106.11914 118.9375 L 106.10742 118.94336 L 106.0957 118.94727 C 105.89309 119.02927 105.68221 119.11783 105.49609 119.19141 L 105.48438 119.19531 L 105.47656 119.19922 C 105.04409 119.37776 104.60465 119.56217 104.16797 119.75 L 104.15234 119.75 L 103.96289 119.83789 C 103.95129 119.84289 103.93933 119.84686 103.92773 119.85156 L 103.77539 119.91797 L 103.76562 119.92578 C 103.69733 119.95578 103.63391 119.98199 103.53906 120.02539 L 103.31055 120.13086 L 103.28125 120.16016 C 102.4968 120.52086 101.72935 120.89914 100.9707 121.28906 L 100.96094 121.29297 L 100.94922 121.29883 C 99.709088 121.96183 98.47953 122.67463 97.283203 123.44336 L 97.208984 123.49023 L 97.142578 123.54492 C 97.147078 123.54092 97.085607 123.58726 97.023438 123.63086 C 95.937151 124.33801 94.903496 125.10889 93.884766 125.90039 L 93.791016 125.90039 L 93.410156 126.20312 C 78.921792 137.67025 75.54401 154.51934 75.4375 155.06641 L 75.28125 155.6543 L 75.275391 155.68359 C 75.099562 156.47483 75.033536 156.75181 74.890625 157.56641 C 74.646085 158.95049 74.569418 159.29612 74.441406 160.74219 L 74.470703 160.55469 C 74.371683 160.99015 74.395503 161.07706 74.439453 161.45117 C 74.483403 161.82529 74.560998 162.40809 75.201172 162.9082 L 75.203125 162.91016 L 75.205078 162.91016 C 75.843399 163.40612 76.896414 164.10443 78.248047 163.98633 L 78.25 163.98633 L 78.253906 163.98633 C 79.065099 163.91243 79.978317 163.16229 80.095703 162.20117 L 80.109375 162.20312 C 80.885833 155.94631 83.037792 149.7779 86.658203 144.10547 C 99.676937 123.69394 126.76878 117.70883 147.18555 130.74609 C 155.05648 135.77114 159.01333 142.85491 162.375 151.13477 L 162.30469 150.90234 C 162.36881 151.20113 162.42949 151.28168 162.44141 151.29102 C 163.58403 153.91276 163.9241 156.80688 164.51172 159.99023 C 164.58912 160.5765 164.90217 161.12848 165.33789 161.50195 L 165.39062 161.54688 L 165.44727 161.58594 C 165.62717 161.71179 165.82459 161.8302 166.09961 161.92188 L 166.26953 161.97852 L 173.00391 162.41602 C 173.87866 162.61349 174.7889 162.28347 175.35547 161.59961 C 175.52421 161.39805 175.46398 161.1081 175.55664 160.86719 L 176 160.42773 L 175.88672 159.72266 C 172.75656 140.06989 156.29518 124.16314 138.54883 118.22656 L 138.53711 118.22266 C 138.38429 118.16866 138.21894 118.10978 138.00977 118.05273 L 137.95898 118.03711 L 137.90625 118.02734 C 138.01117 118.04764 137.98265 118.03429 137.78906 117.99609 C 137.68295 117.95859 137.60785 117.92139 137.42383 117.89062 L 137.60352 117.93359 C 137.13122 117.78901 136.60142 117.63776 136.01562 117.49219 L 136.00195 117.48828 C 133.04402 116.72318 128.69282 115.87538 123.58203 115.80273 L 123.57422 115.80273 z "
  />
  <path
     d="M 113.39258 60.910156 C 112.10692 60.905204 110.80842 61.012189 109.50586 61.242188 C 95.615834 63.69571 86.929011 78.9196 89.775391 94.994141 C 92.612151 111.06429 105.99111 122.3851 119.88086 119.93164 C 133.77492 117.4733 142.46463 102.24963 139.62305 86.179688 C 137.13668 72.118548 126.58172 61.694118 114.67383 60.951172 C 114.24855 60.924638 113.82113 60.911807 113.39258 60.910156 z M 112.10742 71.716797 C 112.40146 71.718567 112.69581 71.728947 112.98828 71.748047 C 121.17748 72.282837 128.6909 79.53801 130.49414 89.738281 C 132.55482 101.39483 126.28929 111.9977 116.82812 113.67383 C 116.82812 113.67383 116.82617 113.67383 116.82617 113.67383 C 107.37003 115.343 97.845222 107.52906 95.789062 95.873047 C 93.728252 84.215728 99.994407 73.612 109.45117 71.941406 C 110.33826 71.784766 111.22531 71.711486 112.10742 71.716797 z "
  />
<path
     d="M 40.355469 124.16406 C 39.345073 124.14506 38.297025 124.16467 37.21875 124.24219 C 36.839853 124.26199 36.453023 124.29108 36.068359 124.33008 L 36.208984 124.32422 C 36.08418 124.32422 35.960946 124.33582 35.839844 124.35352 C 33.491719 124.61023 31.194513 125.07328 28.962891 125.74609 C 28.962891 125.74609 28.960938 125.74609 28.960938 125.74609 C 28.959038 125.74668 28.957078 125.74705 28.955078 125.74805 C 27.956673 126.04249 26.977814 126.37585 26.023438 126.74219 L 26.007812 126.74805 L 25.992188 126.75391 C 25.847376 126.81351 25.670323 126.88414 25.498047 126.95508 C 25.162565 127.093 24.822404 127.2376 24.482422 127.38477 L 24.445312 127.38477 L 24.160156 127.51953 C 24.092026 127.55173 24.00416 127.59253 23.90625 127.63867 C 23.90045 127.64167 23.896555 127.64153 23.890625 127.64453 L 23.857422 127.66016 L 23.816406 127.68164 C 23.124484 127.9956 22.459039 128.33148 21.796875 128.67383 L 21.791016 128.67578 L 21.785156 128.67969 C 20.760594 129.22096 19.748089 129.81416 18.773438 130.44141 L 18.712891 130.48047 L 18.65625 130.52539 C 18.66455 130.51839 18.604024 130.5601 18.558594 130.5918 C 18.555094 130.5938 18.552328 130.59761 18.548828 130.59961 C 18.527328 130.61471 18.539732 130.60465 18.507812 130.62695 C 17.655583 131.18249 16.849256 131.78851 16.050781 132.4043 L 15.972656 132.4043 L 15.591797 132.70508 C 3.7174337 142.10343 0.93965987 155.88683 0.84179688 156.38867 L 0.71484375 156.875 L 0.70898438 156.90234 C 0.56639505 157.54629 0.51056781 157.77363 0.390625 158.44531 L 0.38867188 158.44727 L 0.38867188 158.44922 C 0.1907187 159.5771 0.12444942 159.87417 0.01953125 161.06641 L 0.05078125 160.86914 C -0.00431575 161.10324 0.006693055 161.13878 0.001953125 161.26172 C -0.002786815 161.38466 -0.000436408 161.52488 0.01953125 161.69336 C 0.05946657 162.03032 0.12388426 162.57097 0.73242188 163.05078 L 0.73632812 163.05273 L 0.74023438 163.05664 C 1.2568111 163.45894 2.2226642 164.08525 3.3925781 163.98633 C 4.1790008 163.92383 5.0233296 163.20281 5.1347656 162.30469 L 5.1582031 162.30664 C 5.7855625 157.24296 7.5263133 152.24469 10.460938 147.6543 L 10.460938 147.65234 C 21.005269 131.11345 42.942863 126.26738 59.482422 136.83008 C 65.843903 140.89522 69.03606 146.6079 71.773438 153.3457 L 71.712891 153.1543 C 71.771401 153.39087 71.810032 153.43625 71.794922 153.39844 L 71.802734 153.42188 L 71.8125 153.44336 C 72.74609 155.5606 73.019412 157.93019 73.511719 160.57812 L 73.498047 160.48633 C 73.566257 161.05908 73.867739 161.55935 74.265625 161.90039 L 74.304688 161.93555 L 74.347656 161.9668 C 74.522076 162.0948 74.709533 162.20408 74.970703 162.29102 L 75.142578 162.34766 L 80.650391 162.70703 C 81.456032 162.87861 82.28612 162.57951 82.806641 161.94727 L 82.808594 161.94336 L 82.810547 161.94141 C 82.913902 161.81471 82.863667 161.61544 82.9375 161.4668 L 83.445312 161.19336 L 83.289062 160.21289 C 80.712024 144.05269 67.205668 131.02146 52.634766 126.14844 L 52.634766 126.14648 C 52.509297 126.10468 52.379441 126.06099 52.226562 126.01562 L 52.212891 126.01367 L 52.201172 126.00977 C 52.099082 125.98157 52.060539 125.97456 52.068359 125.97656 L 52.236328 126.03125 C 52.152448 125.99865 51.975931 125.92423 51.728516 125.87695 L 51.871094 125.91211 C 51.484197 125.79457 51.049905 125.67204 50.570312 125.55078 C 48.145794 124.92541 44.568188 124.2228 40.363281 124.16406 L 40.355469 124.16406 z "
/>
<path
     d="M 32.054688 79.384766 C 30.991781 79.381121 29.917458 79.471859 28.839844 79.662109 C 17.344761 81.691543 10.189081 94.268771 12.527344 107.49609 C 14.861554 120.72309 25.898899 130.07606 37.392578 128.04688 C 48.886822 126.01254 56.041377 113.4421 53.703125 100.21484 C 51.657092 88.644912 42.957176 80.032466 33.113281 79.419922 C 32.761714 79.398044 32.40899 79.38598 32.054688 79.384766 z M 30.298828 88.736328 C 37.3717 88.356823 44.193598 94.39698 45.75 103.20703 C 47.41015 112.59999 42.370394 121.09206 34.808594 122.43164 C 27.257981 123.76657 19.602833 117.51479 17.947266 108.12305 C 16.287202 98.730572 21.332076 90.233373 28.882812 88.898438 C 29.355086 88.814988 29.827303 88.761628 30.298828 88.736328 z "
/>
</svg>
